assets/1. 1-F/Alembic/Color/Alembic-color.svg

<svg width="100%" height="100%" viewBox="0 0 32 32" fill="none" xmlns="http://www.w3.org/2000/svg">
<path d="M13.5328 29.2698V23.6694" stroke="url(#paint0_linear_18_24864)" stroke-width="1.4" stroke-linecap="round"/>
<g filter="url(#filter0_i_18_24864)">
<path d="M29.6998 10.6735L18.1587 5.9187L16.7175 9.43197L21.5586 10.9194L22.4866 11.9531L23.2444 11.6484C23.2229 11.5797 23.2874 11.4296 23.4905 11.4999L28.7592 13.1319C29.0083 13.2084 29.2744 13.0808 29.3706 12.8386L29.974 11.3205C30.0751 11.0662 29.9529 10.7778 29.6998 10.6735Z" fill="#C5F5FF"/>
<path d="M29.6998 10.6735L18.1587 5.9187L16.7175 9.43197L21.5586 10.9194L22.4866 11.9531L23.2444 11.6484C23.2229 11.5797 23.2874 11.4296 23.4905 11.4999L28.7592 13.1319C29.0083 13.2084 29.2744 13.0808 29.3706 12.8386L29.974 11.3205C30.0751 11.0662 29.9529 10.7778 29.6998 10.6735Z" fill="url(#paint1_linear_18_24864)"/>
<path d="M29.6998 10.6735L18.1587 5.9187L16.7175 9.43197L21.5586 10.9194L22.4866 11.9531L23.2444 11.6484C23.2229 11.5797 23.2874 11.4296 23.4905 11.4999L28.7592 13.1319C29.0083 13.2084 29.2744 13.0808 29.3706 12.8386L29.974 11.3205C30.0751 11.0662 29.9529 10.7778 29.6998 10.6735Z" fill="url(#paint2_radial_18_24864)"/>
</g>
<g filter="url(#filter1_f_18_24864)">
<path d="M20.7522 7.85938L29.3617 11.5534L29.1352 12.1409L21.2136 9.08776L20.7522 7.85938Z" fill="#D7FFFF"/>
</g>
<g filter="url(#filter2_i_18_24864)">
<circle cx="13.3061" cy="15.131" r="10.5302" fill="url(#paint3_radial_18_24864)"/>
</g>
<circle cx="13.3061" cy="15.131" r="10.5302" fill="url(#paint4_radial_18_24864)"/>
<path d="M3.88184 15.3083C3.97644 20.4322 8.15967 24.5567 13.3062 24.5567C18.4525 24.5567 22.6357 20.4322 22.7303 15.3083H3.88184Z" fill="url(#paint5_radial_18_24864)"/>
<path d="M19.2219 11.7886C19.7346 12.8797 20.5863 15.6004 19.9711 18.1876" stroke="url(#paint6_linear_18_24864)" stroke-width="2.25" stroke-linecap="round"/>
<circle cx="9.69735" cy="17.055" r="1.05502" fill="url(#paint7_radial_18_24864)"/>
<circle cx="13.5328" cy="17.5184" r="1.05502" fill="url(#paint8_radial_18_24864)"/>
<circle cx="11.4228" cy="22.4779" r="1.05502" fill="url(#paint9_radial_18_24864)"/>
<path d="M2.87439 29.2698L9.01705 20.1299" stroke="url(#paint10_linear_18_24864)" stroke-width="1.4" stroke-linecap="round"/>
<g filter="url(#filter3_f_18_24864)">
<path d="M2.87439 29.2698L9.01705 20.1299" stroke="#6F5B92" stroke-width="0.4" stroke-linecap="round"/>
</g>
<path d="M23.8363 29.2698L17.6936 20.1299" stroke="url(#paint11_linear_18_24864)" stroke-width="1.4" stroke-linecap="round"/>
<g filter="url(#filter4_f_18_24864)">
<path d="M23.9769 29.1268L17.8343 19.9868" stroke="#6E658C" stroke-width="0.4" stroke-linecap="round"/>
</g>
<path d="M3.74207 19.9819H23.0079" stroke="url(#paint12_linear_18_24864)" stroke-width="1.5" stroke-linecap="round"/>
<path d="M3.74207 19.9819H23.0079" stroke="url(#paint13_linear_18_24864)" stroke-width="1.5" stroke-linecap="round"/>
<path d="M3.74207 19.9819H23.0079" stroke="url(#paint14_radial_18_24864)" stroke-width="1.5" stroke-linecap="round"/>
<defs>
<filter id="filter0_i_18_24864" x="16.7175" y="5.9187" width="13.2919" height="7.23535" filterUnits="userSpaceOnUse" color-interpolation-filters="sRGB">
<feFlood flood-opacity="0" result="BackgroundImageFix"/>
<feBlend mode="normal" in="SourceGraphic" in2="BackgroundImageFix" result="shape"/>
<feColorMatrix in="SourceAlpha" type="matrix" values="0 0 0 0 0 0 0 0 0 0 0 0 0 0 0 0 0 0 127 0" result="hardAlpha"/>
<feOffset/>
<feGaussianBlur stdDeviation="0.5"/>
<feComposite in2="hardAlpha" operator="arithmetic" k2="-1" k3="1"/>
<feColorMatrix type="matrix" values="0 0 0 0 0.666667 0 0 0 0 0.788235 0 0 0 0 0.992157 0 0 0 1 0"/>
<feBlend mode="normal" in2="shape" result="effect1_innerShadow_18_24864"/>
</filter>
<filter id="filter1_f_18_24864" x="20.2522" y="7.35938" width="9.6095" height="5.28149" filterUnits="userSpaceOnUse" color-interpolation-filters="sRGB">
<feFlood flood-opacity="0" result="BackgroundImageFix"/>
<feBlend mode="normal" in="SourceGraphic" in2="BackgroundImageFix" result="shape"/>
<feGaussianBlur stdDeviation="0.25" result="effect1_foregroundBlur_18_24864"/>
</filter>
<filter id="filter2_i_18_24864" x="2.77588" y="4.60083" width="21.0604" height="21.0603" filterUnits="userSpaceOnUse" color-interpolation-filters="sRGB">
<feFlood flood-opacity="0" result="BackgroundImageFix"/>
<feBlend mode="normal" in="SourceGraphic" in2="BackgroundImageFix" result="shape"/>
<feColorMatrix in="SourceAlpha" type="matrix" values="0 0 0 0 0 0 0 0 0 0 0 0 0 0 0 0 0 0 127 0" result="hardAlpha"/>
<feOffset/>
<feGaussianBlur stdDeviation="0.75"/>
<feComposite in2="hardAlpha" operator="arithmetic" k2="-1" k3="1"/>
<feColorMatrix type="matrix" values="0 0 0 0 0.717647 0 0 0 0 0.862745 0 0 0 0 0.980392 0 0 0 1 0"/>
<feBlend mode="normal" in2="shape" result="effect1_innerShadow_18_24864"/>
</filter>
<filter id="filter3_f_18_24864" x="2.27438" y="19.5299" width="7.34272" height="10.34" filterUnits="userSpaceOnUse" color-interpolation-filters="sRGB">
<feFlood flood-opacity="0" result="BackgroundImageFix"/>
<feBlend mode="normal" in="SourceGraphic" in2="BackgroundImageFix" result="shape"/>
<feGaussianBlur stdDeviation="0.2" result="effect1_foregroundBlur_18_24864"/>
</filter>
<filter id="filter4_f_18_24864" x="17.2342" y="19.3869" width="7.34272" height="10.34" filterUnits="userSpaceOnUse" color-interpolation-filters="sRGB">
<feFlood flood-opacity="0" result="BackgroundImageFix"/>
<feBlend mode="normal" in="SourceGraphic" in2="BackgroundImageFix" result="shape"/>
<feGaussianBlur stdDeviation="0.2" result="effect1_foregroundBlur_18_24864"/>
</filter>
<linearGradient id="paint0_linear_18_24864" x1="14.2522" y1="27.4062" x2="12.7209" y2="27.4062" gradientUnits="userSpaceOnUse">
<stop stop-color="#4F319E"/>
<stop offset="1" stop-color="#4E3B7D"/>
</linearGradient>
<linearGradient id="paint1_linear_18_24864" x1="22.8472" y1="11.7031" x2="23.3128" y2="9.91512" gradientUnits="userSpaceOnUse">
<stop stop-color="#ADD0FF"/>
<stop offset="1" stop-color="#C7F0FF" stop-opacity="0"/>
</linearGradient>
<radialGradient id="paint2_radial_18_24864" cx="0" cy="0" r="1" gradientUnits="userSpaceOnUse" gradientTransform="translate(22.4078 11.2725) rotate(-35.2628) scale(0.195708 0.486604)">
<stop offset="0.349567" stop-color="#DCFFFF"/>
<stop offset="1" stop-color="#DCFFFF" stop-opacity="0"/>
</radialGradient>
<radialGradient id="paint3_radial_18_24864" cx="0" cy="0" r="1" gradientUnits="userSpaceOnUse" gradientTransform="translate(18.1767 12.4492) rotate(157.235) scale(9.58066)">
<stop offset="0.219364" stop-color="#D8FFFF"/>
<stop offset="1" stop-color="#B6E2FF"/>
</radialGradient>
<radialGradient id="paint4_radial_18_24864" cx="0" cy="0" r="1" gradientUnits="userSpaceOnUse" gradientTransform="translate(13.5959 25.6612) rotate(-90) scale(7.72367 15.75)">
<stop stop-color="#ABC0FC"/>
<stop offset="1" stop-color="#ABC0FC" stop-opacity="0"/>
</radialGradient>
<radialGradient id="paint5_radial_18_24864" cx="0" cy="0" r="1" gradientUnits="userSpaceOnUse" gradientTransform="translate(19.2522 15.3084) rotate(90) scale(10.5666 14.375)">
<stop stop-color="#4DFA92"/>
<stop offset="1" stop-color="#2CB174"/>
</radialGradient>
<linearGradient id="paint6_linear_18_24864" x1="19.2219" y1="11.1083" x2="19.7038" y2="17.3002" gradientUnits="userSpaceOnUse">
<stop offset="0.403403" stop-color="white"/>
<stop offset="1" stop-color="white" stop-opacity="0"/>
</linearGradient>
<radialGradient id="paint7_radial_18_24864" cx="0" cy="0" r="1" gradientUnits="userSpaceOnUse" gradientTransform="translate(10.0803 16.875) rotate(138.731) scale(1.01863 0.884886)">
<stop stop-color="#E4FFBA"/>
<stop offset="1" stop-color="#B6EE7F"/>
</radialGradient>
<radialGradient id="paint8_radial_18_24864" cx="0" cy="0" r="1" gradientUnits="userSpaceOnUse" gradientTransform="translate(13.9158 17.3384) rotate(138.731) scale(1.01863 0.884886)">
<stop stop-color="#E4FFBA"/>
<stop offset="1" stop-color="#B6EE7F"/>
</radialGradient>
<radialGradient id="paint9_radial_18_24864" cx="0" cy="0" r="1" gradientUnits="userSpaceOnUse" gradientTransform="translate(11.8058 22.2979) rotate(138.731) scale(1.01863 0.884886)">
<stop stop-color="#CAF1A6"/>
<stop offset="1" stop-color="#A8D483"/>
</radialGradient>
<linearGradient id="paint10_linear_18_24864" x1="6.34595" y1="25.25" x2="5.47095" y2="24.6999" gradientUnits="userSpaceOnUse">
<stop stop-color="#523082"/>
<stop offset="1" stop-color="#443163"/>
</linearGradient>
<linearGradient id="paint11_linear_18_24864" x1="21.9084" y1="25.4375" x2="20.9709" y2="26.25" gradientUnits="userSpaceOnUse">
<stop stop-color="#3E236E"/>
<stop offset="1" stop-color="#39285D"/>
</linearGradient>
<linearGradient id="paint12_linear_18_24864" x1="11.4709" y1="20.9687" x2="11.5334" y2="19.4687" gradientUnits="userSpaceOnUse">
<stop stop-color="#481A77"/>
<stop offset="1" stop-color="#4F476E"/>
</linearGradient>
<linearGradient id="paint13_linear_18_24864" x1="2.3147" y1="18.9062" x2="6.84595" y2="20.3125" gradientUnits="userSpaceOnUse">
<stop stop-color="#70677E"/>
<stop offset="1" stop-color="#70677E" stop-opacity="0"/>
</linearGradient>
<radialGradient id="paint14_radial_18_24864" cx="0" cy="0" r="1" gradientUnits="userSpaceOnUse" gradientTransform="translate(18.1272 19.8515) rotate(90) scale(0.453125 8.72985)">
<stop offset="0.216667" stop-color="#716A8E"/>
<stop offset="1" stop-color="#716A8E" stop-opacity="0"/>
</radialGradient>
</defs>
</svg>

<svg width="100%" height="100%" viewBox="0 0 32 32" xmlns="http://www.w3.org/2000/svg"><path stroke="url(#a)" stroke-linecap="round" stroke-width="1.4" d="M13.533 29.27v-5.6"/><g filter="url(#b)"><path fill="#C5F5FF" d="M29.7 10.674 18.159 5.919l-1.441 3.513 4.84 1.487.929 1.034.757-.305c-.021-.068.043-.218.247-.148l5.268 1.632a.5.5 0 0 0 .612-.293l.603-1.519a.5.5 0 0 0-.274-.646"/><path fill="url(#c)" d="M29.7 10.674 18.159 5.919l-1.441 3.513 4.84 1.487.929 1.034.757-.305c-.021-.068.043-.218.247-.148l5.268 1.632a.5.5 0 0 0 .612-.293l.603-1.519a.5.5 0 0 0-.274-.646"/><path fill="url(#d)" d="M29.7 10.674 18.159 5.919l-1.441 3.513 4.84 1.487.929 1.034.757-.305c-.021-.068.043-.218.247-.148l5.268 1.632a.5.5 0 0 0 .612-.293l.603-1.519a.5.5 0 0 0-.274-.646"/></g><g filter="url(#e)"><path fill="#D7FFFF" d="m20.752 7.86 8.61 3.693-.227.588-7.921-3.053z"/></g><g filter="url(#f)"><circle cx="13.306" cy="15.131" r="10.53" fill="url(#g)"/></g><circle cx="13.306" cy="15.131" r="10.53" fill="url(#h)"/><path fill="url(#i)" d="M3.882 15.308a9.426 9.426 0 0 0 18.848 0z"/><path stroke="url(#j)" stroke-linecap="round" stroke-width="2.25" d="M19.222 11.789c.513 1.09 1.364 3.811.75 6.399"/><circle cx="9.697" cy="17.055" r="1.055" fill="url(#k)"/><circle cx="13.533" cy="17.518" r="1.055" fill="url(#l)"/><circle cx="11.423" cy="22.478" r="1.055" fill="url(#m)"/><path stroke="url(#n)" stroke-linecap="round" stroke-width="1.4" d="m2.874 29.27 6.143-9.14"/><g filter="url(#o)"><path stroke="#6F5B92" stroke-linecap="round" stroke-width=".4" d="m2.874 29.27 6.143-9.14"/></g><path stroke="url(#p)" stroke-linecap="round" stroke-width="1.4" d="m23.836 29.27-6.142-9.14"/><g filter="url(#q)"><path stroke="#6E658C" stroke-linecap="round" stroke-width=".4" d="m23.977 29.127-6.143-9.14"/></g><path stroke="url(#r)" stroke-linecap="round" stroke-width="1.5" d="M3.742 19.982h19.266"/><path stroke="url(#s)" stroke-linecap="round" stroke-width="1.5" d="M3.742 19.982h19.266"/><path stroke="url(#t)" stroke-linecap="round" stroke-width="1.5" d="M3.742 19.982h19.266"/><defs><radialGradient id="d" cx="0" cy="0" r="1" gradientTransform="rotate(-35.264 28.939 -29.616)scale(.19571 .4866)" gradientUnits="userSpaceOnUse"><stop offset=".35" stop-color="#DCFFFF"/><stop offset="1" stop-color="#DCFFFF" stop-opacity="0"/></radialGradient><radialGradient id="g" cx="0" cy="0" r="1" gradientTransform="rotate(157.235 7.835 8.054)scale(9.58066)" gradientUnits="userSpaceOnUse"><stop offset=".219" stop-color="#D8FFFF"/><stop offset="1" stop-color="#B6E2FF"/></radialGradient><radialGradient id="h" cx="0" cy="0" r="1" gradientTransform="matrix(0 -7.72367 15.75 0 13.596 25.661)" gradientUnits="userSpaceOnUse"><stop stop-color="#ABC0FC"/><stop offset="1" stop-color="#ABC0FC" stop-opacity="0"/></radialGradient><radialGradient id="i" cx="0" cy="0" r="1" gradientTransform="matrix(0 10.5666 -14.375 0 19.252 15.308)" gradientUnits="userSpaceOnUse"><stop stop-color="#4DFA92"/><stop offset="1" stop-color="#2CB174"/></radialGradient><radialGradient id="k" cx="0" cy="0" r="1" gradientTransform="matrix(-.76562 .67188 -.58367 -.6651 10.08 16.875)" gradientUnits="userSpaceOnUse"><stop stop-color="#E4FFBA"/><stop offset="1" stop-color="#B6EE7F"/></radialGradient><radialGradient id="l" cx="0" cy="0" r="1" gradientTransform="matrix(-.76562 .67188 -.58367 -.6651 13.916 17.338)" gradientUnits="userSpaceOnUse"><stop stop-color="#E4FFBA"/><stop offset="1" stop-color="#B6EE7F"/></radialGradient><radialGradient id="m" cx="0" cy="0" r="1" gradientTransform="matrix(-.76562 .67188 -.58367 -.6651 11.806 22.298)" gradientUnits="userSpaceOnUse"><stop stop-color="#CAF1A6"/><stop offset="1" stop-color="#A8D483"/></radialGradient><radialGradient id="t" cx="0" cy="0" r="1" gradientTransform="matrix(0 .45313 -8.72985 0 18.127 19.852)" gradientUnits="userSpaceOnUse"><stop offset=".217" stop-color="#716A8E"/><stop offset="1" stop-color="#716A8E" stop-opacity="0"/></radialGradient><linearGradient id="a" x1="14.252" x2="12.721" y1="27.406" y2="27.406" gradientUnits="userSpaceOnUse"><stop stop-color="#4F319E"/><stop offset="1" stop-color="#4E3B7D"/></linearGradient><linearGradient id="c" x1="22.847" x2="23.313" y1="11.703" y2="9.915" gradientUnits="userSpaceOnUse"><stop stop-color="#ADD0FF"/><stop offset="1" stop-color="#C7F0FF" stop-opacity="0"/></linearGradient><linearGradient id="j" x1="19.222" x2="19.704" y1="11.108" y2="17.3" gradientUnits="userSpaceOnUse"><stop offset=".403" stop-color="#fff"/><stop offset="1" stop-color="#fff" stop-opacity="0"/></linearGradient><linearGradient id="n" x1="6.346" x2="5.471" y1="25.25" y2="24.7" gradientUnits="userSpaceOnUse"><stop stop-color="#523082"/><stop offset="1" stop-color="#443163"/></linearGradient><linearGradient id="p" x1="21.908" x2="20.971" y1="25.438" y2="26.25" gradientUnits="userSpaceOnUse"><stop stop-color="#3E236E"/><stop offset="1" stop-color="#39285D"/></linearGradient><linearGradient id="r" x1="11.471" x2="11.533" y1="20.969" y2="19.469" gradientUnits="userSpaceOnUse"><stop stop-color="#481A77"/><stop offset="1" stop-color="#4F476E"/></linearGradient><linearGradient id="s" x1="2.315" x2="6.846" y1="18.906" y2="20.313" gradientUnits="userSpaceOnUse"><stop stop-color="#70677E"/><stop offset="1" stop-color="#70677E" stop-opacity="0"/></linearGradient><filter id="b" width="13.292" height="7.235" x="16.718" y="5.919" color-interpolation-filters="sRGB" filterUnits="userSpaceOnUse"><feFlood flood-opacity="0" result="BackgroundImageFix"/><feBlend in="SourceGraphic" in2="BackgroundImageFix" result="shape"/><feColorMatrix in="SourceAlpha" result="hardAlpha" values="0 0 0 0 0 0 0 0 0 0 0 0 0 0 0 0 0 0 127 0"/><feOffset/><feGaussianBlur stdDeviation=".5"/><feComposite in2="hardAlpha" k2="-1" k3="1" operator="arithmetic"/><feColorMatrix values="0 0 0 0 0.666667 0 0 0 0 0.788235 0 0 0 0 0.992157 0 0 0 1 0"/><feBlend in2="shape" result="effect1_innerShadow_18_24864"/></filter><filter id="e" width="9.61" height="5.281" x="20.252" y="7.359" color-interpolation-filters="sRGB" filterUnits="userSpaceOnUse"><feFlood flood-opacity="0" result="BackgroundImageFix"/><feBlend in="SourceGraphic" in2="BackgroundImageFix" result="shape"/><feGaussianBlur result="effect1_foregroundBlur_18_24864" stdDeviation=".25"/></filter><filter id="f" width="21.06" height="21.06" x="2.776" y="4.601" color-interpolation-filters="sRGB" filterUnits="userSpaceOnUse"><feFlood flood-opacity="0" result="BackgroundImageFix"/><feBlend in="SourceGraphic" in2="BackgroundImageFix" result="shape"/><feColorMatrix in="SourceAlpha" result="hardAlpha" values="0 0 0 0 0 0 0 0 0 0 0 0 0 0 0 0 0 0 127 0"/><feOffset/><feGaussianBlur stdDeviation=".75"/><feComposite in2="hardAlpha" k2="-1" k3="1" operator="arithmetic"/><feColorMatrix values="0 0 0 0 0.717647 0 0 0 0 0.862745 0 0 0 0 0.980392 0 0 0 1 0"/><feBlend in2="shape" result="effect1_innerShadow_18_24864"/></filter><filter id="o" width="7.343" height="10.34" x="2.274" y="19.53" color-interpolation-filters="sRGB" filterUnits="userSpaceOnUse"><feFlood flood-opacity="0" result="BackgroundImageFix"/><feBlend in="SourceGraphic" in2="BackgroundImageFix" result="shape"/><feGaussianBlur result="effect1_foregroundBlur_18_24864" stdDeviation=".2"/></filter><filter id="q" width="7.343" height="10.34" x="17.234" y="19.387" color-interpolation-filters="sRGB" filterUnits="userSpaceOnUse"><feFlood flood-opacity="0" result="BackgroundImageFix"/><feBlend in="SourceGraphic" in2="BackgroundImageFix" result="shape"/><feGaussianBlur result="effect1_foregroundBlur_18_24864" stdDeviation=".2"/></filter></defs></svg>
